icon/ir/shopping-bag-add.svg

<svg stroke-width="1.5" viewBox="0 0 24 24" fill="none" xmlns="http://www.w3.org/2000/svg" height="1em" width="1em">
  <path d="M19.2609 9.69589L20.6455 18.6959C20.8319 19.9074 19.8945 21 18.6688 21H5.33122C4.10545 21 3.16809 19.9074 3.35448 18.6959L4.73909 9.69589C4.8892 8.72022 5.7287 8 6.71584 8H17.2842C18.2713 8 19.1108 8.72022 19.2609 9.69589Z" stroke="currentColor" stroke-linecap="round" stroke-linejoin="round"/>
  <path d="M14 5C14 3.89543 13.1046 3 12 3C10.8954 3 10 3.89543 10 5" stroke="currentColor" stroke-linecap="round" stroke-linejoin="round"/>
  <path d="M8.99219 15H11.9922M14.9922 15H11.9922M11.9922 15V12M11.9922 15V18" stroke="currentColor" stroke-linecap="round" stroke-linejoin="round"/>
</svg>

<svg width="24" height="24" stroke-width="1.5" fill="none" xmlns="http://www.w3.org/2000/svg"><path d="m19.26 9.696 1.385 9A2 2 0 0 1 18.67 21H5.33a2 2 0 0 1-1.977-2.304l1.385-9A2 2 0 0 1 6.716 8h10.568a2 2 0 0 1 1.977 1.696ZM14 5a2 2 0 1 0-4 0M8.992 15h3m3 0h-3m0 0v-3m0 3v3" stroke="currentColor" stroke-linecap="round" stroke-linejoin="round"/></svg>
